svg/fluentui-system-icons/ic_fluent_error_circle_settings_20_regular.svg

<svg width="20" height="20" viewBox="0 0 20 20" fill="none" xmlns="http://www.w3.org/2000/svg">
<path d="M18 10C18 5.58172 14.4183 2 10 2C5.58172 2 2 5.58172 2 10C2 14.4183 5.58172 18 10 18C10.198 18 10.3944 17.9928 10.5889 17.9787C10.4314 17.6673 10.3027 17.3389 10.2062 16.997C10.1377 16.999 10.069 17 10 17C6.13401 17 3 13.866 3 10C3 6.13401 6.13401 3 10 3C13.866 3 17 6.13401 17 10C17 10.069 16.999 10.1377 16.997 10.2062C17.3389 10.3027 17.6673 10.4314 17.9787 10.5889C17.9928 10.3944 18 10.198 18 10ZM10.6578 12.8895C10.5303 12.6573 10.2835 12.5 10 12.5C9.58579 12.5 9.25 12.8358 9.25 13.25C9.25 13.6642 9.58579 14 10 14C10.0751 14 10.1477 13.989 10.2161 13.9684C10.3254 13.5904 10.4743 13.2292 10.6578 12.8895ZM10.4919 6.41012C10.4496 6.17688 10.2455 6 10 6C9.72386 6 9.5 6.22386 9.5 6.5V11L9.50806 11.0899C9.55039 11.3231 9.75454 11.5 10 11.5C10.2761 11.5 10.5 11.2761 10.5 11V6.5L10.4919 6.41012ZM11.6351 14.9202C12.723 14.6423 13.369 13.5234 13.0657 12.4422L12.9095 11.8854C13.1636 11.6901 13.439 11.5228 13.7314 11.3879L14.0688 11.7459C14.8577 12.583 16.1885 12.5837 16.9783 11.7474L17.303 11.4036C17.6008 11.5442 17.8806 11.7184 18.1378 11.9217L18.0116 12.344C17.6823 13.4462 18.3483 14.5983 19.4677 14.863L19.8167 14.9455C19.8383 15.1272 19.8494 15.3123 19.8494 15.5001C19.8494 15.6561 19.8417 15.8102 19.8268 15.9621L19.3662 16.0798C18.2783 16.3577 17.6323 17.4766 17.9356 18.5578L18.0917 19.1144C17.8376 19.3098 17.5623 19.4771 17.2698 19.612L16.9325 19.2541C16.1436 18.4169 14.8128 18.4162 14.023 19.2525L13.698 19.5967C13.4002 19.4562 13.1205 19.282 12.8633 19.0788L12.9897 18.656C13.319 17.5538 12.653 16.4017 11.5336 16.137L11.184 16.0544C11.1625 15.8727 11.1514 15.6878 11.1514 15.5001C11.1514 15.3441 11.159 15.1899 11.174 15.0379L11.6351 14.9202ZM16.5004 15.5001C16.5004 14.9478 16.0527 14.5001 15.5004 14.5001C14.9481 14.5001 14.5004 14.9478 14.5004 15.5001C14.5004 16.0524 14.9481 16.5001 15.5004 16.5001C16.0527 16.5001 16.5004 16.0524 16.5004 15.5001Z" fill="#212121"/>
</svg>

<svg xmlns="http://www.w3.org/2000/svg" width="20" height="20"><path d="M18 10a8 8 0 1 0-7.411 7.979 5.462 5.462 0 0 1-.383-.982 7 7 0 1 1 6.79-6.79c.343.096.671.224.983.382.014-.195.021-.391.021-.589Zm-7.342 2.89a.75.75 0 1 0-.442 1.078c.11-.378.258-.739.442-1.079Zm-.166-6.48a.5.5 0 0 0-.992.09V11l.008.09A.5.5 0 0 0 10.5 11V6.5l-.008-.09Zm1.143 8.51a2 2 0 0 0 1.43-2.478l-.155-.557c.254-.195.529-.362.821-.497l.338.358a2 2 0 0 0 2.91.001l.324-.343c.298.14.578.314.835.518l-.126.422a2 2 0 0 0 1.456 2.519l.349.082a4.697 4.697 0 0 1 .01 1.017l-.46.118a2 2 0 0 0-1.431 2.478l.156.556c-.254.196-.53.363-.822.498l-.337-.358a2 2 0 0 0-2.91-.002l-.325.345a4.32 4.32 0 0 1-.835-.518l.127-.423a2 2 0 0 0-1.456-2.519l-.35-.083a4.715 4.715 0 0 1-.01-1.016l.461-.118Zm4.865.58a1 1 0 1 0-2 0 1 1 0 0 0 2 0Z"/></svg>
